X: 30912
T: Over The Hills And Far Away
R: barndance
M: 4/4
K: Adorian
AB|"D"defe defe|"G"d2 B2 B4|"D"defe defe|"A"g2 e2 e4|
"D"defe defe|"G"d2 B2 g3 B|"A"A3 B ABde|"A"f2 e2 e2:|
fg|"D"a3 f afef|"G"d2 B2 B2 fg|"D"a3 f afed|"A"g2 e2 e2 fg|
"D"a3 f afef|"G"d2 B2 g3 B|"A"A3 B ABde|"A"f2 e2 e4:|

